public/images/logos/finch.svg

<?xml version="1.0" encoding="UTF-8" standalone="no"?>
<svg width="108px" height="81px" viewBox="0 0 108 81" version="1.1" xmlns="http://www.w3.org/2000/svg" xmlns:xlink="http://www.w3.org/1999/xlink" xmlns:sketch="http://www.bohemiancoding.com/sketch/ns">
    <title>logo grey</title>
    <description>Created with Sketch (http://www.bohemiancoding.com/sketch)</description>
    <defs></defs>
    <g id="Homepage" stroke="none" stroke-width="1" fill="none" fill-rule="evenodd" sketch:type="MSPage">
        <g id="desktop" sketch:type="MSArtboardGroup" transform="translate(-547.000000, -3190.000000)" fill="#E5E5E5">
            <g id="logo-grey" sketch:type="MSLayerGroup" transform="translate(547.000000, 3190.000000)">
                <path d="M28.7812305,34.546992 C30.6195824,35.6323749 33.10283,34.7004998 34.3281934,32.4660377 C35.5529432,30.2309386 35.0565391,27.5391379 33.2181872,26.4531179 C31.380449,25.367735 28.8972013,26.2989732 27.6718379,28.5340722 C26.4470881,30.7685344 26.9434922,33.460972 28.7812305,34.546992 Z" id="Fill-3" sketch:type="MSShapeGroup"></path>
                <path d="M107.971167,54.7811829 C107.690225,52.393789 105.664706,53.4090899 104.69748,54.6315218 C104.121907,55.3582761 98.8572241,61.104065 98.7923456,55.6019244 C98.7358001,50.7822383 101.848183,47.6172054 103.090398,43.2147745 C104.176667,39.3660897 103.060637,35.1378643 98.5667588,37.5935036 C95.0436771,39.518744 91.822965,43.4057421 89.0730686,47.1484668 C88.6641554,47.7093966 88.2177436,48.0087188 88.3665475,47.484905 C89.1909213,44.580881 93.1407726,38.0568544 94.3466796,35.3839072 C96.4019594,30.8264274 98.47331,25.9666322 99.1042386,20.9589718 C99.7827845,15.5735668 96.933487,11.0202775 91.0670411,13.6130064 C86.0630628,15.8249975 83.7720776,22.2071454 82.5155773,27.0992674 C80.6650517,34.3057486 79.6984214,40.7878701 78.9544018,49.617875 C78.8817855,50.4841134 78.7555998,51.7520422 78.6669126,53.1822037 C76.1056995,55.9724852 72.28501,58.8124542 68.5101521,58.8124542 C63.3526081,58.8124542 63.3591555,52.3464961 64.3472136,48.9689444 C64.881122,47.143079 65.992985,44.1378842 67.6649458,43.0016571 C69.7220113,41.606217 70.6517382,43.1142022 70.2011599,44.9364758 C69.9261702,46.0080493 69.5136858,46.7671304 69.7535577,47.5226196 C70.4076997,49.5813577 73.0641474,50.3123025 74.9069351,47.3783463 C80.4966057,38.488477 67.6703028,34.1028082 61.6461248,40.9704567 C58.0164995,45.1088854 56.4088219,52.6990977 58.44565,58.0174545 C56.5433407,58.8645363 54.4755613,59.4685685 53.2642974,58.8100597 C50.5673751,57.3421836 53.5880947,48.5439069 54.3987785,45.59259 C55.674921,40.9501028 53.2077519,35.7849989 48.0138998,39.4666619 C45.8473147,41.0015862 44.1235701,43.0764877 43.3224097,44.168415 C42.7789778,44.9089381 42.6658868,44.7269503 42.6658868,44.7269503 C42.702195,44.1486598 43.0503962,42.5514765 43.2861016,40.3670231 C43.3932404,39.3714775 43.3301475,38.0706232 42.4641087,37.6162521 C41.573666,37.1493095 39.8677779,37.002043 38.7261542,37.779682 C37.7642856,38.4351977 37.2833513,40.5735554 37.0970488,41.5762848 C36.1452989,46.7210347 35.1179567,52.2818425 34.6739258,56.2801885 C32.3829406,57.9647738 29.6449484,59.7241897 27.9700114,58.6358541 C25.9337786,57.3134487 28.0122718,51.0552202 28.528919,49.3658457 C29.4276947,46.4247058 30.4758695,42.9585547 31.3621457,39.7899299 C32.0317633,37.3953523 29.9288663,36.948165 27.1956358,37.4701829 C25.7569995,37.744362 24.8022735,39.1535709 24.4058599,40.3508597 C24.3826465,40.4197038 24.3600283,40.4885479 24.3374101,40.5567934 C22.2743925,41.3493986 18.0685984,42.6873688 11.7432413,41.9498389 C11.7914538,40.953096 11.9009734,40.1245721 11.9795419,39.7228817 C19.0245148,7.82770697 41.0296389,-5.1275564 38.5541368,19.6880497 C38.4886631,20.3465586 38.2017692,22.4723448 38.9416223,23.2990727 C39.5046963,23.928248 41.0623758,24.1527397 41.8879399,22.9949614 C42.8396898,21.6611817 44.2027337,17.8478169 44.4229635,13.3238612 C45.139008,-1.34472247 20.3244659,-15.9103393 6.13273819,40.0629118 L6.07500227,40.2305322 C6.06012188,40.2862061 6.01429027,40.4933371 5.94881654,40.7902647 C5.1315854,40.5615825 4.28995041,40.2999749 3.42212594,40.0006527 C1.57457643,39.3636951 0.10558411,41.2602006 0.0049926579,43.2267474 C-0.0955987938,45.1926956 1.3382758,46.392379 3.00071323,46.7880829 C3.51974131,46.9114037 4.03579331,47.0227515 4.55005967,47.1251197 C4.51137065,47.2855564 4.47565771,47.4316256 4.44708735,47.5405789 C3.95365355,49.9154012 2.07336718,60.3461812 1.82278138,65.5867142 C1.78349714,66.4134421 1.57160035,69.3491943 1.99658436,72.3897091 C2.1537213,73.5133647 2.34478554,74.5879314 2.63406036,75.6074228 C2.92452562,76.6257169 3.30486845,77.5248808 3.77449362,78.3049144 C4.2441188,79.0843494 5.3327683,80.850949 8.01659585,80.9922291 C10.434362,81.1191417 12.3450043,79.6584494 12.9997416,79.0274782 C16.2180728,75.9259016 16.9763776,71.9628757 17.4269559,69.8029667 C18.0263381,66.9294736 17.8703916,63.2244634 17.3579109,61.0040914 C16.9543547,59.2566484 15.2681086,52.447667 12.7991539,47.833316 C16.2924748,47.7189749 19.6036597,47.0431054 22.659497,45.8218709 C21.4345432,49.9555104 20.5077923,54.1400347 20.5077923,58.5729965 C20.5077923,66.7444925 29.1092543,63.8033526 34.4304825,60.5024274 C34.4929802,62.0870391 34.9048694,63.6453105 36.5030236,63.8314889 C36.846463,63.871598 36.9988382,63.9506191 37.6416712,63.7536651 C38.0976064,63.6135823 38.733892,63.3046818 39.2338732,62.1576791 C39.8505166,60.7436811 41.3510554,57.3278161 42.186143,55.5935433 C44.2414228,51.3246101 46.1205187,49.0940611 48.1757985,47.2244947 C48.6757797,46.7695249 48.9537454,47.0981807 48.831131,47.8656428 C47.3472582,54.8194961 44.9640146,67.215027 55.7392043,63.7255288 C56.9730864,63.3256343 58.8224215,62.3223063 60.3461737,61.1471674 C61.9276618,62.8574944 64.2245991,63.9362516 67.3744806,63.9362516 C71.1951701,63.9362516 74.6920623,61.4369113 77.3187491,58.8663322 C77.7877791,58.4107639 78.2133583,58.0264342 78.6008437,57.6858055 C78.7270294,60.2887113 79.2216537,62.6886767 80.5382708,63.7099641 C84.1256357,66.4918646 87.5106274,56.0155876 89.0403317,53.488111 C90.6259863,50.8690418 93.0574424,46.9383427 95.3972353,45.8386329 C95.6192507,45.7344688 95.8067437,45.988294 95.3966401,46.4851688 C91.974745,51.6382998 89.6016201,64.1320083 97.8108349,64.1858863 C101.423794,64.2098321 104.839737,61.4303262 106.334324,59.6451686 C107.524755,58.2233882 108.14497,56.2526508 107.971167,54.7811829 L107.971167,54.7811829 Z M10.2775705,72.6818085 C9.81920776,73.7671397 8.58500703,75.3087132 8.05078171,74.9459182 C6.93260606,74.1879575 6.86375602,68.1633613 7.12959367,64.0767257 C7.39861883,59.930235 8.80558216,53.0188064 8.92415723,52.6089824 C9.0427323,52.1997691 9.13963236,51.996384 9.2161324,52.0000486 C9.44627004,52.0116532 10.4643581,53.8763219 10.9195334,55.507678 C11.8254214,58.7551211 12.0115715,63.4274813 11.999459,64.3534027 C11.9873465,65.2799348 11.9095715,68.8150486 10.2775705,72.6818085 L10.2775705,72.6818085 Z M85.0736611,44.9999808 C84.6400169,44.9845244 86.212418,34.6929293 87.3993575,29.8140521 C87.8829473,27.8219579 90.6387624,18 93.3857635,18 C95.4147251,18 91.8280523,28.6530375 91.1076622,30.6742611 C91.3374114,30.0732443 91.6799786,29.1898507 91.0054209,30.9566379 C89.1339345,35.6803565 85.5073054,45.0154372 85.0736611,44.9999808 L85.0736611,44.9999808 Z" id="Fill-1" sketch:type="MSShapeGroup"></path>
            </g>
        </g>
    </g>
</svg>

<svg width="108" height="81" viewBox="0 0 108 81" xmlns="http://www.w3.org/2000/svg"><title>logo grey</title><g fill="#E5E5E5" fill-rule="evenodd"><path d="M28.78 34.547c1.84 1.085 4.323.153 5.548-2.08 1.225-2.236.73-4.928-1.11-6.014-1.838-1.085-4.32-.154-5.546 2.08-1.225 2.236-.73 4.928 1.11 6.014z"/><path d="M107.97 54.78c-.28-2.386-2.305-1.37-3.273-.148-.575.726-5.84 6.472-5.905.97-.056-4.82 3.056-7.985 4.298-12.387 1.087-3.85-.03-8.077-4.523-5.62-3.523 1.924-6.744 5.81-9.494 9.553-.41.56-.855.86-.706.337.824-2.904 4.774-9.428 5.98-12.1 2.055-4.56 4.126-9.418 4.757-14.426.68-5.386-2.17-9.94-8.037-7.347-5.004 2.212-7.295 8.594-8.55 13.486-1.852 7.206-2.82 13.688-3.563 22.518-.072.866-.198 2.134-.287 3.564-2.56 2.79-6.382 5.63-10.157 5.63-5.157 0-5.15-6.466-4.163-9.843.534-1.827 1.646-4.832 3.318-5.968 2.057-1.396 2.987.112 2.536 1.934-.274 1.072-.686 1.83-.446 2.587.654 2.058 3.31 2.79 5.153-.145 5.59-8.89-7.237-13.275-13.26-6.408-3.63 4.14-5.238 11.73-3.2 17.047-1.904.848-3.97 1.452-5.183.793-2.697-1.468.324-10.266 1.135-13.217 1.275-4.643-1.192-9.808-6.386-6.126-2.167 1.535-3.89 3.61-4.692 4.7-.543.742-.656.56-.656.56.036-.578.384-2.176.62-4.36.107-.996.044-2.296-.822-2.75-.89-.468-2.596-.615-3.738.163-.962.655-1.443 2.794-1.63 3.796-.95 5.145-1.978 10.706-2.422 14.704-2.29 1.685-5.03 3.444-6.704 2.356-2.036-1.323.042-7.58.56-9.27.898-2.94 1.946-6.407 2.832-9.576.67-2.395-1.433-2.842-4.166-2.32-1.44.274-2.394 1.684-2.79 2.88-.023.07-.046.14-.07.207-2.062.792-6.267 2.13-12.593 1.393.048-.997.158-1.825.237-2.227 7.045-31.895 29.05-44.85 26.574-20.035-.065.66-.352 2.784.388 3.61.563.63 2.12.855 2.946-.303.952-1.334 2.315-5.147 2.535-9.67.716-14.67-24.1-29.235-38.29 26.738l-.058.168c-.015.056-.06.263-.126.56-.818-.228-1.66-.49-2.528-.79-1.847-.636-3.316 1.26-3.417 3.227-.1 1.966 1.333 3.165 2.996 3.56.52.124 1.036.236 1.55.338-.04.16-.074.307-.103.416-.493 2.375-2.374 12.806-2.624 18.047-.04.826-.25 3.762.174 6.803.157 1.123.348 2.198.637 3.217.29 1.02.67 1.918 1.14 2.698.47.78 1.56 2.546 4.243 2.687 2.417.127 4.328-1.334 4.983-1.965 3.218-3.1 3.976-7.064 4.427-9.224.6-2.874.443-6.58-.07-8.8-.403-1.746-2.09-8.555-4.558-13.17 3.492-.114 6.804-.79 9.86-2.01-1.225 4.133-2.152 8.317-2.152 12.75 0 8.17 8.6 5.23 13.922 1.93.063 1.584.475 3.142 2.073 3.328.343.042.496.12 1.14-.076.455-.14 1.09-.45 1.59-1.596.618-1.414 2.118-4.83 2.953-6.564 2.055-4.27 3.935-6.5 5.99-8.37.5-.454.778-.126.655.642-1.483 6.953-3.866 19.35 6.91 15.86 1.233-.4 3.082-1.404 4.606-2.58 1.582 1.71 3.88 2.79 7.028 2.79 3.82 0 7.318-2.5 9.945-5.07.468-.455.893-.84 1.28-1.18.127 2.603.622 5.003 1.938 6.024 3.588 2.782 6.973-7.694 8.502-10.222 1.586-2.62 4.017-6.55 6.357-7.65.222-.104.41.15 0 .647-3.422 5.153-5.795 17.647 2.414 17.7 3.614.025 7.03-2.755 8.524-4.54 1.19-1.422 1.81-3.392 1.637-4.864zM10.28 72.683c-.46 1.085-1.693 2.627-2.227 2.264-1.117-.758-1.186-6.783-.92-10.87C7.4 59.93 8.806 53.02 8.924 52.61c.12-.41.216-.614.292-.61.23.012 1.248 1.876 1.704 3.508.905 3.247 1.092 7.92 1.08 8.845-.013.927-.09 4.462-1.722 8.33zM85.074 45c-.434-.015 1.138-10.307 2.325-15.186C87.882 27.822 90.64 18 93.385 18c2.03 0-1.558 10.653-2.278 12.674.23-.6.572-1.484-.103.283-1.87 4.723-5.498 14.058-5.93 14.043z"/></g></svg>
